X:1
T:Title
%%score { ( 1 3 5 ) | ( 2 4 6 ) }
L:1/8
M:4/4
K:G
V:1 treble nm="Grand Piano"
V:3 treble 
V:5 treble 
V:2 bass 
V:4 bass 
V:6 bass 
V:1
 z4 z2[Q:1/4=100] D2 | D2 B2 B2 D2 | E2 [Ec]2 [Ec]2 [Ec]2 | B2 G2 F2 A2 | G3 E D2 D2 | %5
 [B,D]2 [DB]2 [DB]2 [B,D]2 | [CE]2 [Ec]2 [Ec]2 [Ec]2 | B2 d2 [Ec]2 E2 |[M:25/32] D2 A2 z2 z/4 | %9
[M:5/16] D<DD/ |[M:4/4] (9:8:9B-[DB-] [DB-]2 [DB-]/ [DB]3/2B/A/-A3/2G/ | %11
 (9:8:9A-[FA-] [FA-]2 [FA-]/ [FA]3/2D/D/-D3/2D/ | (9:8:9c-[Fc-] [Fc-]2 [Fc-]/ [Fc]3/2c/B/-B3/2A/ | %13
 (9:8:9B-[GB-] [DB-]2 [DB-]/ [DB]3/2D/D/-D3/2D/ | (9:8:9B-[DB-] [DB-]2 [DB-]/ [DB]3/2d/d/-d3/2c/ | %15
 (9:8:9E-[CE-] [CE-]2 [CE-]/ [CE]3/2E/D/-D3/2^C/ | %16
 (9:8:9D-[B,D-] [B,D-]2 [B,D-]/ [B,D]3/2B/B/-B3/2A/ |[M:7/8] G2- [EG-]2 [DG]3- | %18
[M:1/4] [DG]/4 z/4 z/ z |[M:4/4] z4 z2 (3:2:2z2 [GBd] | %20
 (5:4:5[Gce]2 [EGc]/ [DGB]/-[DGB]3/2[DFA]/ [GB]3- [GB]/4 z/4 z/ | %21
[M:7/8] [Gc]3/2-[Gc]/4 z/4 D>D z z2 |] %22
V:2
 z4 z2 D,2 | [G,B,]2 [G,D]2 [G,D]2 [G,B,]2 | [C,G,C]2 [C,G,]2 [C,G,]2 [C,G,]2 | %3
 [D,G,D]2 [D,B,D]2 [D,A,D]2 [D,CD]2 | [G,B,D]3 [G,C] [G,B,]2 D,2 | %5
 [G,,G,]2 [G,,G,]2 [G,,G,]2 [G,,G,]2 | [C,G,]2 [C,G,]2 [C,G,]2 [C,G,]2 | %7
 [G,D]2 [G,=F]2[K:bass] [C,G,]2 [C,G,C]2 |[M:25/32] [D,A,B,]2 [D,F,C]2 [G,,G,]2- [G,,G,]/4- | %9
[M:5/16] [G,,G,]/4 z/4 z/ z/ z |[M:4/4] z2 (3:2:2[G,,G,]2 [G,,G,] [G,,G,]3/2-[G,,G,]/4 z/4 z2 | %11
 z2 (3:2:2[D,D]2 [C,D] [D,D]3/2-[D,D]/4 z/4 z2 | %12
 z2 (3:2:2[D,A,]2 [D,A,] [D,A,]3/2-[D,A,]/4 z/4 z2 | %13
 z2 (3:2:2[G,,G,]2 [G,,G,] [G,,G,]3/2-[G,,G,]/4 z/4 z2 | %14
 z2 (3:2:2[G,,G,]2 [G,,G,] [G,,G,]3/2-[G,,G,]/4 z/4 z2 | %15
 z2 (3:2:2[C,G,]2 [C,G,] [C,G,]3/2-[C,G,]/4 z/4 z2 | %16
 z [D,G,]- [D,G,]/4 z/4 z/ z (5:4:5[D,G,]2 [D,G,D]/ [D,G,D]/-[D,G,D]3/2[D,F,C]/ | %17
[M:7/8] z2 C2 B,3- |[M:1/4] B,/4 z/4 z/[K:treble] D |[M:4/4] (5:4:5E2 F/ G/-G3/2A/ z4[K:bass] | %20
 z4 (3:2:2G,,4 [G,,G,]2 |[M:7/8] [C,,C,]2- [C,,C,]/4 z/4 z/ z/ C/-C/4 z/4 z/ z2 |] %22
V:3
 x8 | x8 | x8 | x8 | x8 | x8 | x8 | x8 |[M:25/32] z z/4 z z/4 z3/2 [B,G]2- [B,G]/4- | %9
[M:5/16] [B,G]/4 z/4 z/ z/ z |[M:4/4] x8 | x8 | x8 | x8 | x8 | x8 | x8 | %17
[M:7/8] z z/ D/-D/4 z/4 z/ z z z2 |[M:1/4] x2 |[M:4/4] x8 | z4 (3:2:2D4 [DGB]2 | %21
[M:7/8] z z/ [CEA]/-[CEA]/4 z/4 z/ z z z2 |] %22
V:4
 x8 | x8 | x8 | x8 | x8 | x8 | x8 | x4[K:bass] x4 |[M:25/32] x25/4 |[M:5/16] x5/2 | %10
[M:4/4] z [G,,G,]- [G,,G,]/4 z/4 z/ z z4 | z [D,D]- [D,D]/4 z/4 z/ z z4 | %12
 z [D,A,]- [D,A,]/4 z/4 z/ z z4 | z [G,,G,]- [G,,G,]/4 z/4 z/ z z4 | %14
 z [G,,G,]- [G,,G,]/4 z/4 z/ z z4 | z [C,G,]- [C,G,]/4 z/4 z/ z z4 | z2 (3:2:2[D,G,]2 [D,G,] z4 | %17
[M:7/8] z z/ B,/-B,/4 z/4 z/ z/ C/-C/4 z/4 z/ z2 |[M:1/4] x[K:treble] x | %19
[M:4/4] z4 (5:4:5B2 c/ d/-d3/2[K:bass]G,,/ | (3:2:2[C,,C,]3 [E,,D,]3 G,3- G,/4 z/4 z/ | %21
[M:7/8] z2 [D,,D,]2- [D,,D,]/4 z/4 z/ z2 |] %22
V:5
 x8 | x8 | x8 | x8 | x8 | x8 | x8 | x8 |[M:25/32] x25/4 |[M:5/16] x5/2 |[M:4/4] x8 | x8 | x8 | x8 | %14
 x8 | x8 | x8 |[M:7/8] [G,B,]3/2-[G,B,]/4 z/4 z z/ E/-E/4 z/4 z/ z2 |[M:1/4] x2 |[M:4/4] x8 | x8 | %21
[M:7/8] E2 [B,G]3/2-[B,F-G]/4F/4-[G,-B,-D-FG-]/<[G,B,DG]/- [G,B,DG]2 |] %22
V:6
 x8 | x8 | x8 | x8 | x8 | x8 | x8 | x4[K:bass] x4 |[M:25/32] x25/4 |[M:5/16] x5/2 |[M:4/4] x8 | %11
 x8 | x8 | x8 | x8 | x8 | x8 |[M:7/8] G,,-G,,-G,,- G,,- G,,3- |[M:1/4] G,,/4 z/4 z/[K:treble] z | %19
[M:4/4] x38/5[K:bass] x2/5 | x8 |[M:7/8] z z z2 G,,3 |] %22

